src/icons/error.icon.svg

<svg xmlns="http://www.w3.org/2000/svg" viewBox="0 0 24 24"><path d="M11.99 2C6.47 2 2 6.48 2 12s4.47 10 9.99 10C17.52 22 22 17.52 22 12S17.52 2 11.99 2zM12 20c-4.42 0-8-3.58-8-8s3.58-8 8-8 8 3.58 8 8-3.58 8-8 8zm-1-6h2V7h-2v7zm0 3h2v-2h-2v2z" fill="currentColor" fill-rule="nonzero"/></svg>

<svg width="24px" height="24px" viewBox="0 0 24 24" version="1.1" xmlns="http://www.w3.org/2000/svg" xmlns:xlink="http://www.w3.org/1999/xlink">
    <!-- Generator: Sketch 49.2 (51160) - http://www.bohemiancoding.com/sketch -->
    <title>IconError</title>
    <desc>Created with Sketch.</desc>
    <defs></defs>
    <g id="Page-1" stroke="none" stroke-width="1" fill="none" fill-rule="evenodd">
        <g id="IconError">
            <path d="M11.99,2 C6.47,2 2,6.48 2,12 C2,17.52 6.47,22 11.99,22 C17.52,22 22,17.52 22,12 C22,6.48 17.52,2 11.99,2 Z M12,20 C7.58,20 4,16.42 4,12 C4,7.58 7.58,4 12,4 C16.42,4 20,7.58 20,12 C20,16.42 16.42,20 12,20 Z M11,14 L13,14 L13,7 L11,7 L11,14 Z M11,17 L13,17 L13,15 L11,15 L11,17 Z" id="Combined-Shape" fill="currentColor" fill-rule="nonzero"></path>
        </g>
    </g>
</svg>
